X: 649
T: Enginde Yavaş Yavaş
C: Sadettin Kaynak
O: Turkey
F: http://compmusic.upf.edu/node/140
N: hicaz--sarki--sofyan--enginde_yavas--sadettin_kaynak
N: makam= hicaz
N: form= sarki
N: usul= sofyan = 4/4
M: 4/4
L: 1/16
K: C _7/8B ^f ^c 
Q: 1/4=78
%%MIDI tuningsystem comma53
.A4 z4 .A4 z4  | d16  | .A4 z4 .A4 z4  | \
w:  ARANAĞME  |   |   | 
dcde d4 dcde d4  | dcde dcde =f8  | 
w:   |   | 
=fedf edce dcBd c4  | g8 e8  | a8 d8  | \
w:   |   |   | 
z2fg2fg2 e=f2d c2d2  | 
w:   | 
=f16  | z2e=f2ef2 de2c B2c2  | e16  | z2de =f2ed e2dc d2cB  | 
w:   |   |   |   | 
c2BA B2AG A4 z4  | A4 e12  | z2c4d2 c2B2 B2A2  | \
w:   |  En gin  |  de  ya vaş  *  ya  | 
.A4 z2A2 ^G2=F2 A4  | 
w:  vaş  ya vaş  ya vaş   | 
c2d14  | z4 e2=f2 e2d2 d2c2  | d8-d2A2 A3d  | \
w:  gü nün   |  mi ne si  *  sol  |  du  *  sol  | 
d4 z4 dcde dcde  | 
w:  du  SAZ  | 
=f8 fedf edce  | dcBd cBAc B8  | z2e=f g2fe f2ed e2dc  | 
w:   |   |   | 
d4 z4 dcde d4  | z2=f4d2 c4 e4  | g4 e2=f2 e2d2 d2c2  | \
w:   |  Der *  dim   |  *  ba na  ar *  ka  | 
c12 z4  | 
w:  daş   | 
A2B12A2  | B4 c4 d2B2 B2A2  | A12 z4  | \
w:  bu gün   |  de  ak şam  *  ol  |  du   | 
A^GAB A4 AGAB A4  | 
w:  SAZ  | 
A^GAB AGAB d8  | z2=cd c2B2 ABAG =FGFE  | 
w:   |   | 
D8 A^GAB A4  | z2A4B2 A2^G2 =F2E2  | \
w:   |  Göl ge ler  *  in  | 
=F3E EDDC D2A^G ABA2  | 
w:  di  *  su *  *  *  ya   | 
z2A4B2 A2^G2 =F2E2  | =F3E EDDC D2=fe def2  | \
w:  kuş lar  var *  dı   |  uy *  ku *  *  *  ya  SAZ  | 
z2=f4d2 c4 e4  | 
w:  Gur *  be  | 
g4 e2=f2 e2d2 d2c2  | c12 z4  | A2B12A2  | \
w:  *  ti  du ya  *  du  |  ya   |  bu gün   | 
B4 c4 d2B2 B2A2  | A12 z4  | a8-a2ga =b2gf  | 
w:  de  ak şam  *  ol  |  du   |  SAZ  | 
e8 e2fg a2=fe  | d8 d2cd edcd  | .e4 g2=fe e8  | \
w:   |   |  *  Su  u *  yur   | 
ede6 ede6  | 
w:   | 
ede2 ede2 ede2 z4  | e2=f4fe d4 fed2  | \
w:   |  fı sıl da *  şır  SAZ  | 
c2d6 d8  | 
w:  gi der  yâ  | 
dcd6 dcd6  | dcd2 dcd2 dcde =f2ed  | \
w:  re   |  *  *  *  *  *  *  *  *  *  *  u la  | 
c6e=f gfeg fed2  | 
w:  şır  SAZ  | 
z2e4=f2 g8  | ga=f6 fge6  | e=fd2 dec2 cdB2 d2dc  | 
w:  Yol cu  yol  |  da   |  *  *  *  *  *  *  *  *  *  ya ra  | 
BAB2 z2AB cBAc B4  | A2B6 B4 B2A2  | \
w:  şır  *  *  SAZ  |  bu gün   | 
B4 c4 d2B2 B2A2  | 
w:  de  ak şam  *  ol  | 
A12 z4  | |


